X: 12470
T: Farewell To Cowdenbeath
R: jig
M: 6/8
K: Bminor
|:fBB BAB|gag f2e|fdd dcd|cAA cde|
fBB BAB|gag f2e|fdd GBB|cBA B2e:|
GBB BAB|cBc dce|GBB BAB|cBA aAA|
GBB BAB|cBc dce|GBB BAB|cBA B2a|
GBB BAB|cBc dce|GBB BAB|cBA aAA|
GBB BAB|cBc dce|agf gfe|cBA B3||

